assets/images/svg/svg-walletconnect.svg

<?xml version="1.0" encoding="UTF-8"?>
<svg width="70px" height="70px" viewBox="0 0 512 512" version="1.1" xmlns="http://www.w3.org/2000/svg" xmlns:xlink="http://www.w3.org/1999/xlink">
    <!-- Generator: Sketch 49.3 (51167) - http://www.bohemiancoding.com/sketch -->
    <title>logo</title>
    <desc>Created with Sketch.</desc>
    <defs>
        <radialGradient cx="0%" cy="50%" fx="0%" fy="50%" r="100%" id="radialGradient-1">
            <stop stop-color="#5D9DF6" offset="0%"></stop>
            <stop stop-color="#006FFF" offset="100%"></stop>
        </radialGradient>
    </defs>
    <g id="Page-1" stroke="none" stroke-width="1" fill="none" fill-rule="evenodd">
        <g id="logo">
            <rect id="base" fill="url(#radialGradient-1)" x="0" y="0" width="512" height="512" rx="256"></rect>
            <path d="M169.209772,184.531136 C217.142772,137.600733 294.857519,137.600733 342.790517,184.531136 L348.559331,190.179285 C350.955981,192.525805 350.955981,196.330266 348.559331,198.676787 L328.82537,217.99798 C327.627045,219.171241 325.684176,219.171241 324.485851,217.99798 L316.547278,210.225455 C283.10802,177.485633 228.89227,177.485633 195.453011,210.225455 L186.951456,218.549188 C185.75313,219.722448 183.810261,219.722448 182.611937,218.549188 L162.877976,199.227995 C160.481326,196.881474 160.481326,193.077013 162.877976,190.730493 L169.209772,184.531136 Z M383.602212,224.489406 L401.165475,241.685365 C403.562113,244.031874 403.562127,247.836312 401.165506,250.182837 L321.971538,327.721548 C319.574905,330.068086 315.689168,330.068112 313.292501,327.721609 C313.292491,327.721599 313.29248,327.721588 313.29247,327.721578 L257.08541,272.690097 C256.486248,272.103467 255.514813,272.103467 254.915651,272.690097 C254.915647,272.690101 254.915644,272.690105 254.91564,272.690108 L198.709777,327.721548 C196.313151,330.068092 192.427413,330.068131 190.030739,327.721634 C190.030725,327.72162 190.03071,327.721606 190.030695,327.721591 L110.834524,250.181849 C108.437875,247.835329 108.437875,244.030868 110.834524,241.684348 L128.397819,224.488418 C130.794468,222.141898 134.680206,222.141898 137.076856,224.488418 L193.284734,279.520668 C193.883897,280.107298 194.85533,280.107298 195.454493,279.520668 C195.454502,279.520659 195.45451,279.520651 195.454519,279.520644 L251.65958,224.488418 C254.056175,222.141844 257.941913,222.141756 260.338618,224.488222 C260.338651,224.488255 260.338684,224.488288 260.338717,224.488321 L316.546521,279.520644 C317.145683,280.107273 318.117118,280.107273 318.71628,279.520644 L374.923175,224.489406 C377.319825,222.142885 381.205562,222.142885 383.602212,224.489406 Z" id="WalletConnect" fill="#FFFFFF" fill-rule="nonzero"></path>
        </g>
    </g>
</svg>

<svg width="70" height="70" viewBox="0 0 512 512" xmlns="http://www.w3.org/2000/svg">
  <defs>
    <radialGradient cx="0%" cy="50%" fx="0%" fy="50%" r="100%" id="a">
      <stop stop-color="#5D9DF6" offset="0%"/>
      <stop stop-color="#006FFF" offset="100%"/>
    </radialGradient>
  </defs>
  <g fill="none" fill-rule="evenodd">
    <rect fill="url(#a)" width="512" height="512" rx="256"/>
    <path d="M169.21 184.531c47.933-46.93 125.648-46.93 173.58 0l5.77 5.648a5.92 5.92 0 0 1 0 8.498l-19.735 19.321a3.115 3.115 0 0 1-4.34 0l-7.938-7.773c-33.439-32.74-87.655-32.74-121.094 0l-8.502 8.324a3.115 3.115 0 0 1-4.34 0l-19.733-19.321a5.92 5.92 0 0 1 0-8.498l6.332-6.199Zm214.392 39.958 17.563 17.196a5.92 5.92 0 0 1 0 8.498l-79.193 77.539c-2.397 2.346-6.283 2.346-8.68 0l-56.207-55.032a1.558 1.558 0 0 0-2.17 0l-56.205 55.032c-2.397 2.346-6.283 2.346-8.68 0l-79.195-77.54a5.92 5.92 0 0 1 0-8.498l17.563-17.196c2.396-2.346 6.282-2.346 8.679 0l56.208 55.033c.599.586 1.57.586 2.17 0l56.205-55.033c2.396-2.346 6.282-2.346 8.679 0l56.208 55.033c.599.586 1.57.586 2.17 0l56.206-55.032c2.397-2.346 6.283-2.346 8.68 0Z" fill="#FFF" fill-rule="nonzero"/>
  </g>
</svg>
